X:1
T:Gibeon, 10.10.10.10
T:Gibeon, 10.10.10.10
T:Samuel Wesley, 1835
T:Public Domain Courtesy of the Cyber Hymnal™
C:Samuel Wesley, 1835
Z:Public Domain
Z:Courtesy of the Cyber Hymnal™
%%score ( 1 2 ) ( 3 4 )
L:1/8
Q:1/4=115
M:4/4
K:G
V:1 treble 
V:2 treble 
V:3 bass 
V:4 bass 
V:1
 [GB]4 [Ac]2 [GB]2 | [FA]4 [Fd]4 | [EG]2 [Ec]2 [Dc]2 [DB]2 | [DA]6 [FA]2 | %4
 [GB]2 [G^c]2 [Fd]2 [DB]2 | [FA]2 [DB]2 [DE]2 [^CA]2 | [DF]6 [DA]2 | [DB]2 [EG]2 [Ec]2 [FA]2 | %8
 [Dd]2 [GB]2 [Ge]2 [Ac]2 | [FA]6 [Gd]2 | [Ge]2 [Ac]2 [FA]2 [Gd]2 | [EG]2 [Ac]2 [GB]2 [FA]2 | G8 |] %13
V:2
 x8 | x8 | x8 | x8 | x8 | x8 | x8 | x8 | x8 | x8 | x8 | x8 | G8 |] %13
V:3
 [G,D]4 [F,D]2 [G,D]2 | [D,D]4 [B,,D]4 | [E,B,]2 [A,,A,]2 [F,A,]2 G,2 | [D,F,]6 [D,D]2 | %4
 [G,D]2 [E,A,]2 [D,A,]2 [G,B,]2 | [D,D]2 [G,,B,]2 [A,,A,]2 [A,,A,]2 | [D,A,]6 [D,F,]2 | %7
 [G,,G,]2 [C,G,]2 [A,,A,]2 [D,A,]2 | [B,,G,]2 [G,,D]2 [C,C]2 [A,,E]2 | [D,D]6 [B,,D]2 | %10
 [C,C]2 [A,,E]2 [D,D]2 [B,,D]2 | [C,C]2 [A,,E]2 [D,D]2 [D,C]2 | [G,,B,]8 |] %13
V:4
 x8 | x8 | x6 G,2 | x8 | x8 | x8 | x8 | x8 | x8 | x8 | x8 | x8 | x8 |] %13

